packages/kaspersky-hexa-ui-icons/src/iconsSVGs/28x20/FlagBy.svg

<svg width="28" height="20" viewBox="0 0 28 20" fill="none" xmlns="http://www.w3.org/2000/svg">
<g clip-path="url(#clip0_5138_462)">
<rect width="28" height="20" rx="2" fill="white"/>
<mask id="mask0_5138_462" style="mask-type:luminance" maskUnits="userSpaceOnUse" x="0" y="0" width="28" height="20">
<rect width="28" height="20" rx="2" fill="white"/>
</mask>
<g mask="url(#mask0_5138_462)">
<path fill-rule="evenodd" clip-rule="evenodd" d="M0 13.3333H28V0H0V13.3333Z" fill="#E54252"/>
<path fill-rule="evenodd" clip-rule="evenodd" d="M0 20H28V13.3333H0V20Z" fill="#5CBE6B"/>
<path fill-rule="evenodd" clip-rule="evenodd" d="M0 0H4V3L3.33333 4L4 5V7L3.33333 8L4 9V11L3.33333 12L4 13V15L3.33333 16L4 17V20H0V0Z" fill="white"/>
<path fill-rule="evenodd" clip-rule="evenodd" d="M-0.666667 2L-2 4L-0.666667 6L-2 8L-0.666667 10L-2 12L-0.666667 14L-2 16L-0.666667 18L0.666667 16L-0.666667 14L0.666667 12L-0.666667 10L0.666667 8L-0.666667 6L0.666667 4L-0.666667 2Z" fill="#E54252"/>
<path fill-rule="evenodd" clip-rule="evenodd" d="M0.666667 2L2 0L3.33333 2L2 4L0.666667 2ZM2 8L0.666667 6L2 4L3.33333 6L2 8ZM2 12L0.666667 10L2 8L3.33333 10L2 12ZM2 16L3.33333 14L2 12L0.666667 14L2 16ZM2 16L3.33333 18L2 20L0.666667 18L2 16Z" fill="#E54252"/>
</g>
</g>
<defs>
<clipPath id="clip0_5138_462">
<rect width="28" height="20" fill="white"/>
</clipPath>
</defs>
</svg>

<svg xmlns="http://www.w3.org/2000/svg" width="28" height="20" fill="none" viewBox="0 0 28 20"><g clip-path="url(#a)"><rect width="28" height="20" fill="#fff" rx="2"/><mask id="b" width="28" height="20" x="0" y="0" maskUnits="userSpaceOnUse" style="mask-type:luminance"><rect width="28" height="20" fill="#fff" rx="2"/></mask><g fill-rule="evenodd" clip-rule="evenodd" mask="url(#b)"><path fill="#e54252" d="M0 13.3333h28V0H0z"/><path fill="#5cbe6b" d="M0 20h28v-6.6667H0z"/><path fill="#fff" d="M0 0h4v3l-.6667 1L4 5v2l-.6667 1L4 9v2l-.6667 1L4 13v2l-.6667 1L4 17v3H0z"/><path fill="#e54252" d="M-.667 2-2 4l1.333 2L-2 8l1.333 2L-2 12l1.333 2L-2 16l1.333 2 1.333-2-1.333-2 1.333-2-1.333-2L.667 8-.667 6 .667 4zM.667 2 2 0l1.333 2L2 4zM2 8 .667 6 2 4l1.333 2zm0 4L.667 10 2 8l1.333 2zm0 4 1.333-2L2 12 .667 14zm0 0 1.333 2L2 20 .667 18z"/></g></g><defs><clipPath id="a"><path fill="#fff" d="M0 0h28v20H0z"/></clipPath></defs></svg>
